X:1
T:Title
%%score { ( 1 3 ) | ( 2 4 ) }
L:1/8
M:9/8
K:Db
V:1 treble nm="Grand Piano"
V:3 treble 
V:2 bass 
V:4 bass 
V:1
 z3 z3[Q:1/4=100] [A,DF]2 [A,EG] | [DFA]3 [F,D]3 dc[FB] | [_FB]3 [=FA]3 D2 E | %3
 F3 [FA]3 [FA]G[A,DF] |[M:3/4] [A,CE]6 |[M:3/8] [A,DF]2 [A,EG] |[M:9/8] [DFA]3 [F,D]3 dc[FB] | %7
 [_FB]3 [=FA]3 D2 E | F3 A3 .[CG]2[K:bass] [G,CE] |[M:3/4] [F,D]6 | %10
[M:3/8][K:treble] [F,DF]2 [F,DF] |[M:9/8] [B,DF]3 [DB]3 [FB][E=A][DB] | c3 F3 F2 F | %13
 d3- d2 d dc[=Gd] |[M:3/4] e6 |[M:3/8] A2 A |[M:9/8] [Af]3- [Af]2 [Ae] .[DAd]2 [DAd] | e3 B3 dcB | %18
 A3 d3 cB[Gc] |[M:3/4] [Fd]6 |[M:3/8] z3 |[M:9/8] A6 z3 | [A,DF]3 [DFA]3 A2 A | B6 z3 | %24
[M:3/4] [EAc]6 |[M:3/8] z3 |[M:9/8] f6 z3 | e3 B3 dcB |[M:5/4] z2 F F2 d [Ec] [Ge]3 | %29
[M:3/4] [Fd]6 |] %30
V:2
 z3 z3 D,2 D, | D,3 D,3 [D,A,]2 [D,A,] | [D,=G,]3 [D,A,]3 [D,F,]2 [D,_G,D] | %3
 [D,A,D]3 [D,D]3 z ED, |[M:3/4] A,,6 |[M:3/8] D,2 D, |[M:9/8] D,3 D,3 [D,A,]2 [D,A,] | %7
 [D,=G,]3 [D,A,]3 [F,A,]2 [_G,B,D] | [A,D]3 [A,DF]3[K:bass] z FA,, |[M:3/4] D,6 |[M:3/8] D,2 D, | %11
[M:9/8] B,,3 [B,,F,]3 F,-[C,F,][B,,F,] | [F,=A,E]3 [F,A,E]3 [F,A,E]2 [F,A,E] | %13
 [B,F]3- [B,F]2 [B,F][K:bass] [E,B,]2 [E,B,] |[M:3/4][K:treble] [A,CG]6 |[M:3/8] [A,CG]2 [A,CG] | %16
[M:9/8][K:bass] [D,D]3- [D,D]2 [E,C] z[K:treble] cF, | [G,B,G]3 [G,DG]3 [=G,D_F]2 [G,DF] | %18
 [A,DF]3 [A,DF]3[K:bass] [A,,A,]2 [A,,A,] |[M:3/4] [D,A,]6 |[M:3/8][K:treble] A2 A | %21
[M:9/8][K:bass] D,2 F, A,2 A, z DA,, | D,3 D,3 z3 | [G,DG]2 [G,D] [G,D]2 [G,DG] z[K:treble] cE, | %24
[M:3/4] A,6 |[M:3/8] B2 A |[M:9/8][K:bass] [D,D]2 [D,D] [D,D]2 [E,C] z[K:treble] cF, | %27
 [G,B,G]3 [G,DG]3 z3 |[M:5/4] [A,DF]2 [A,D] [A,D]2 [A,F][K:bass] [A,,A,] [A,,A,]3 | %29
[M:3/4] [D,A,]6 |] %30
V:3
 x9 | z3 z3 .F3 | x9 | x9 |[M:3/4] x6 |[M:3/8] x3 |[M:9/8] z3 z3 .F3 | x9 | x8[K:bass] x | %9
[M:3/4] x6 |[M:3/8][K:treble] x3 |[M:9/8] x9 | x9 | z3 z3 .=G3 |[M:3/4] x6 |[M:3/8] x3 | %16
[M:9/8] x9 | x9 | z3 z3 .G3 |[M:3/4] x6 |[M:3/8] x3 |[M:9/8] [DF]2 [DF] [DF]2 [DFA] [EG]F[A,CE] | %22
 x9 | z2 G G2 B .[E=GB]2 [EGd] |[M:3/4] x6 |[M:3/8] x3 |[M:9/8] A2 A A2 [Ae] .[DAd]2 [DAd] | x9 | %28
[M:5/4] A6 z4 |[M:3/4] x6 |] %30
V:4
 x9 | x9 | x9 | z3 z3 .[D,A,]3 |[M:3/4] x6 |[M:3/8] x3 |[M:9/8] x9 | x9 | z3 z3[K:bass] .[A,,E,]3 | %9
[M:3/4] x6 |[M:3/8] x3 |[M:9/8] z3 z3 .D,3 | x9 | x6[K:bass] x3 |[M:3/4][K:treble] x6 |[M:3/8] x3 | %16
[M:9/8][K:bass] z3 z3 .F,3[K:treble] | x9 | x6[K:bass] x3 |[M:3/4] x6 |[M:3/8][K:treble] x3 | %21
[M:9/8][K:bass] z3 z3 .[A,,A,]3 | x9 | z3 z3 .E,3[K:treble] |[M:3/4] x6 |[M:3/8] x3 | %26
[M:9/8][K:bass] z3 z3 .F,3[K:treble] | x9 |[M:5/4] x6[K:bass] x4 |[M:3/4] x6 |] %30

